X: 1129
T: An Argyllshire Air
R: waltz
M: 3/4
K: Gmixolydian
G3/2A/|c2 A3/2d/ c3/2A/|G3 f e3/2d/|g2 d3/2e/ d3/2c/|c A2 g g3/2f/|
e2 g3/2e/ d3/2c/|d2 e2 G3/2A/|c2 A3/2d/ c3/2A/|G4:|

